static/src/assets/images/getopi_full-logo.svg

<svg width="122" height="40" viewBox="0 0 122 40" fill="none" xmlns="http://www.w3.org/2000/svg">
<path d="M48.5256 29.8149L51.8107 29.0183C52.2542 29.8642 53.2233 30.899 55.4161 30.899C57.4939 30.899 59.005 29.9628 59.005 27.7453V24.8134H58.8244C58.2577 25.955 57.0176 27.3675 54.3731 27.3675C50.8087 27.3675 48 24.8462 48 19.8036C48 14.72 50.8087 11.9194 54.3895 11.9194C57.1161 11.9194 58.2741 13.562 58.8326 14.6789H59.0379V12.1248H62.6351V27.8521C62.6351 31.7531 59.5553 33.6667 55.375 33.6667C51.4165 33.6585 49.1908 31.9174 48.5256 29.8149ZM59.0215 19.7872C59.0215 16.8553 57.7321 14.9089 55.3832 14.9089C52.9523 14.9089 51.7039 16.9702 51.7039 19.7872C51.7039 22.637 52.9769 24.5095 55.3832 24.5095C57.7156 24.5177 59.0215 22.7438 59.0215 19.7872Z" fill="#F5F5F5"/>
<path d="M63.5713 19.9515C63.5713 15.1799 66.4622 11.9194 70.897 11.9194C74.7077 11.9194 77.9682 14.3093 77.9682 19.7379V20.8549H67.1931C67.2259 23.5076 68.7864 25.0516 71.1434 25.0516C72.712 25.0516 73.9275 24.3699 74.4203 23.0559L77.8286 23.4419C77.188 26.1274 74.7077 27.8932 71.1023 27.8932C66.4211 27.9014 63.5713 24.8052 63.5713 19.9515ZM74.4696 18.3993C74.4531 16.2968 73.0405 14.761 70.9463 14.761C68.7699 14.761 67.3081 16.42 67.2013 18.3993H74.4696Z" fill="#F5F5F5"/>
<path d="M86.6489 14.0794H83.5938V22.6124C83.5938 24.181 84.333 24.5259 85.2446 24.5259C85.6963 24.5259 86.1069 24.4274 86.3122 24.3781L86.9282 27.4168C86.534 27.5564 85.8195 27.77 84.7847 27.8028C82.0416 27.8849 79.931 26.3656 79.9474 23.253V14.0794H77.7546V11.0735H79.9474V7.11499H83.5938V11.0735H86.6489V14.0794Z" fill="#F5F5F5"/>
<path d="M86.7476 19.9186C86.7476 15.1224 89.6302 11.9194 94.1636 11.9194C98.697 11.9194 101.58 15.1224 101.58 19.9186C101.58 24.7066 98.697 27.8932 94.1636 27.8932C89.6302 27.8932 86.7476 24.7066 86.7476 19.9186ZM97.8758 19.9104C97.8758 17.077 96.6439 14.8103 94.1801 14.8103C91.6752 14.8103 90.4433 17.077 90.4433 19.9104C90.4433 22.7438 91.6752 24.9776 94.1801 24.9776C96.6521 24.9776 97.8758 22.7438 97.8758 19.9104Z" fill="#F5F5F5"/>
<path d="M102.532 12.1248H106.121V14.6872H106.335C106.885 13.5703 108.027 11.9277 110.753 11.9277C114.326 11.9277 117.143 14.7283 117.143 19.8859C117.143 24.9859 114.416 27.8768 110.77 27.8768C108.109 27.8768 106.91 26.2918 106.335 25.1666H106.187V33.404H102.541V12.1248H102.532ZM109.743 24.8792C112.149 24.8792 113.422 22.7603 113.422 19.8612C113.422 16.9786 112.174 14.9172 109.743 14.9172C107.394 14.9172 106.105 16.8636 106.105 19.8612C106.105 22.8589 107.419 24.8792 109.743 24.8792Z" fill="#F5F5F5"/>
<path d="M118.013 12.1248H121.66V27.5975H118.013V12.1248Z" fill="#F5F5F5"/>
<path d="M117.767 9.05318C117.759 7.92804 118.687 7 119.837 7C120.945 7 121.898 7.91982 121.906 9.05318C121.898 10.203 120.945 11.1228 119.837 11.1228C118.687 11.1228 117.759 10.203 117.767 9.05318Z" fill="#F5F5F5"/>
<path d="M21.6 0H18.4C8.25556 0 0 7.9957 0 17.8208C0 27.646 8.25556 35.6416 18.4 35.6416H21.6C23.1889 35.6416 24.7556 35.4479 26.2667 35.0605L31 39.6449C31.2444 39.8816 31.5667 40 31.9 40C32.0667 40 32.2222 39.9677 32.3889 39.9032C32.8667 39.7094 33.1667 39.2682 33.1667 38.7732V31.6815C35.1667 30.1103 36.8333 28.1195 38 25.9026C39.3222 23.3845 40 20.6618 40 17.8208C40 7.9957 31.7444 0 21.6 0ZM31.1333 30.0995C30.8111 30.3363 30.6333 30.6914 30.6333 31.0788V35.8138L27.5333 32.8114C27.2889 32.5747 26.9667 32.4563 26.6333 32.4563C26.5111 32.4563 26.3889 32.4778 26.2667 32.5101C24.7556 32.9621 23.1889 33.1881 21.6 33.1881H18.4C9.65556 33.1881 2.53333 26.29 2.53333 17.8208C2.53333 9.35163 9.64444 2.45359 18.4 2.45359H21.6C30.3444 2.45359 37.4667 9.35163 37.4667 17.8208C37.4667 22.685 35.1556 27.1617 31.1333 30.0995Z" fill="#F5F5F5"/>
</svg>

<svg xmlns="http://www.w3.org/2000/svg" fill="none" viewBox="0 0 122 40"><path fill="#fff" d="M48.526 29.815l3.285-.797c.443.846 1.412 1.881 3.605 1.881 2.078 0 3.589-.936 3.589-3.154v-2.932h-.18c-.567 1.142-1.807 2.555-4.452 2.555-3.564 0-6.373-2.522-6.373-7.564 0-5.084 2.809-7.885 6.39-7.885 2.726 0 3.884 1.643 4.443 2.76h.205v-2.554h3.597v15.727c0 3.901-3.08 5.815-7.26 5.815-3.959-.009-6.184-1.75-6.85-3.852zM59.02 19.787c0-2.932-1.289-4.878-3.638-4.878-2.43 0-3.68 2.061-3.68 4.878 0 2.85 1.274 4.723 3.68 4.723 2.333.008 3.639-1.766 3.639-4.723zM63.571 19.951c0-4.771 2.891-8.032 7.326-8.032 3.81 0 7.071 2.39 7.071 7.819v1.117H67.193c.033 2.653 1.593 4.197 3.95 4.197 1.569 0 2.784-.682 3.277-1.996l3.409.386c-.641 2.685-3.121 4.451-6.727 4.451-4.68.008-7.53-3.088-7.53-7.942zM74.47 18.4c-.017-2.102-1.43-3.638-3.524-3.638-2.176 0-3.638 1.659-3.745 3.638h7.269zM86.649 14.08h-3.055v8.532c0 1.569.739 1.914 1.65 1.914.452 0 .863-.099 1.068-.148l.616 3.039a6.956 6.956 0 01-2.143.386c-2.743.082-4.854-1.437-4.838-4.55v-9.174h-2.192v-3.006h2.192V7.115h3.647v3.958h3.055v3.006z"/><path fill="#fff" d="M86.748 19.919c0-4.797 2.882-8 7.416-8 4.533 0 7.416 3.203 7.416 8 0 4.788-2.883 7.974-7.416 7.974-4.534 0-7.416-3.186-7.416-7.974zm11.128-.009c0-2.833-1.232-5.1-3.696-5.1-2.505 0-3.737 2.267-3.737 5.1 0 2.834 1.232 5.068 3.737 5.068 2.472 0 3.696-2.234 3.696-5.068zM102.532 12.125h3.589v2.562h.214c.55-1.117 1.692-2.76 4.418-2.76 3.573 0 6.39 2.801 6.39 7.959 0 5.1-2.727 7.99-6.373 7.99-2.661 0-3.86-1.584-4.435-2.71h-.148v8.238h-3.646v-21.28h-.009zm7.211 12.754c2.406 0 3.679-2.119 3.679-5.018 0-2.882-1.248-4.944-3.679-4.944-2.349 0-3.638 1.947-3.638 4.944 0 2.998 1.314 5.018 3.638 5.018zM118.013 12.125h3.647v15.473h-3.647V12.124zM117.767 9.053c-.008-1.125.92-2.053 2.07-2.053 1.108 0 2.061.92 2.069 2.053a2.093 2.093 0 01-2.069 2.07c-1.15 0-2.078-.92-2.07-2.07z"/><path stroke="#fff" stroke-width="3" d="M27.313 33.99l-.602-.58-.81.206a17.446 17.446 0 01-4.301.534h-3.205C9.034 34.15 1.5 26.794 1.5 17.862 1.5 9.034 9.107 2.32 18.509 1.57a15.782 15.782 0 012.966 0C30.88 2.32 38.49 9.034 38.5 17.864c0 2.596-.613 5.073-1.826 7.37a16.628 16.628 0 01-4.435 5.281l-.576.45V38.194l-4.35-4.202z"/></svg>
